antibot/app/images/dist/antihow-step2.svg

<svg width="122" height="122" viewBox="0 0 122 122" fill="none" xmlns="http://www.w3.org/2000/svg">
<circle cx="62" cy="61" r="49" fill="#F4FFF4" stroke="#29B74D" stroke-width="2"/>
<g filter="url(#filter0_d_79_7748)">
<path d="M45.6379 54.4959C46.4704 52.5167 47.6804 50.7187 49.2004 49.2021C50.717 47.6812 52.5159 46.4711 54.4962 45.6396C58.5785 43.9436 63.1624 43.913 67.267 45.5542C67.3082 46.9031 67.8735 48.1828 68.8428 49.1218C69.8121 50.0608 71.1092 50.5851 72.4587 50.5834C75.3462 50.5834 77.667 48.2625 77.667 45.375C77.667 42.4875 75.3462 40.1667 72.4587 40.1667C71.0233 40.1667 69.7254 40.7417 68.7858 41.6771C63.7212 39.65 57.9045 39.6813 52.8795 41.8C50.4004 42.8417 48.1712 44.3417 46.2545 46.2563C44.3193 48.1921 42.7853 50.491 41.7407 53.0211C40.696 55.5513 40.1612 58.2627 40.167 61H44.3337C44.3337 58.7375 44.7733 56.55 45.6379 54.4959ZM76.3608 67.5042C75.5254 69.4875 74.3254 71.2709 72.7983 72.7979C71.2712 74.325 69.4879 75.525 67.5025 76.3604C63.4202 78.0564 58.8362 78.0871 54.7316 76.4459C54.6915 75.097 54.1269 73.8169 53.1578 72.8778C52.1887 71.9386 50.8915 71.4145 49.542 71.4167C46.6545 71.4167 44.3337 73.7375 44.3337 76.625C44.3337 79.5125 46.6545 81.8334 49.542 81.8334C50.9775 81.8334 52.2754 81.2584 53.215 80.3229C55.689 81.3216 58.3323 81.8344 61.0004 81.8334C65.0973 81.8413 69.1053 80.639 72.5215 78.3773C75.9376 76.1157 78.6097 72.8955 80.2025 69.1209C81.2847 66.5505 81.8394 63.7889 81.8337 61H77.667C77.6723 63.2337 77.228 65.4457 76.3608 67.5042Z" fill="#2AB74E"/>
</g>
<g filter="url(#filter1_d_79_7748)">
<path d="M60.9991 51.5452C55.7866 51.5452 51.5449 55.7869 51.5449 60.9994C51.5449 66.2119 55.7866 70.4536 60.9991 70.4536C66.2116 70.4536 70.4533 66.2119 70.4533 60.9994C70.4533 55.7869 66.2116 51.5452 60.9991 51.5452Z" fill="#2AB74E"/>
</g>
<rect x="10" y="82" width="36" height="36" rx="18" fill="#F4FFF4" stroke="#29B74D" stroke-width="2"/>
<path d="M32.9219 105.125V107H23.3906V105.389L28.0195 100.34C28.5273 99.7669 28.9277 99.2721 29.2207 98.8555C29.5137 98.4388 29.7188 98.0645 29.8359 97.7324C29.9596 97.3939 30.0215 97.0651 30.0215 96.7461C30.0215 96.2969 29.9368 95.903 29.7676 95.5645C29.6048 95.2194 29.3639 94.9492 29.0449 94.7539C28.7259 94.5521 28.3385 94.4512 27.8828 94.4512C27.3555 94.4512 26.9128 94.5651 26.5547 94.793C26.1966 95.0208 25.9264 95.3366 25.7441 95.7402C25.5618 96.1374 25.4707 96.5931 25.4707 97.1074H23.1172C23.1172 96.2806 23.306 95.5254 23.6836 94.8418C24.0612 94.1517 24.6081 93.6048 25.3242 93.2012C26.0404 92.791 26.903 92.5859 27.9121 92.5859C28.8626 92.5859 29.6699 92.7454 30.334 93.0645C30.998 93.3835 31.5026 93.8359 31.8477 94.4219C32.1992 95.0078 32.375 95.7012 32.375 96.502C32.375 96.9447 32.3034 97.3841 32.1602 97.8203C32.0169 98.2565 31.8118 98.6927 31.5449 99.1289C31.2845 99.5586 30.9753 99.9915 30.6172 100.428C30.2591 100.857 29.8652 101.294 29.4355 101.736L26.3594 105.125H32.9219Z" fill="#29B74D"/>
<defs>
<filter id="filter0_d_79_7748" x="0.166992" y="0.166687" width="121.667" height="121.667" filterUnits="userSpaceOnUse" color-interpolation-filters="sRGB">
<feFlood flood-opacity="0" result="BackgroundImageFix"/>
<feColorMatrix in="SourceAlpha" type="matrix" values="0 0 0 0 0 0 0 0 0 0 0 0 0 0 0 0 0 0 127 0" result="hardAlpha"/>
<feOffset/>
<feGaussianBlur stdDeviation="20"/>
<feComposite in2="hardAlpha" operator="out"/>
<feColorMatrix type="matrix" values="0 0 0 0 0.164706 0 0 0 0 0.717647 0 0 0 0 0.305882 0 0 0 0.4 0"/>
<feBlend mode="normal" in2="BackgroundImageFix" result="effect1_dropShadow_79_7748"/>
<feBlend mode="normal" in="SourceGraphic" in2="effect1_dropShadow_79_7748" result="shape"/>
</filter>
<filter id="filter1_d_79_7748" x="11.5449" y="11.5452" width="98.9082" height="98.9083" filterUnits="userSpaceOnUse" color-interpolation-filters="sRGB">
<feFlood flood-opacity="0" result="BackgroundImageFix"/>
<feColorMatrix in="SourceAlpha" type="matrix" values="0 0 0 0 0 0 0 0 0 0 0 0 0 0 0 0 0 0 127 0" result="hardAlpha"/>
<feOffset/>
<feGaussianBlur stdDeviation="20"/>
<feComposite in2="hardAlpha" operator="out"/>
<feColorMatrix type="matrix" values="0 0 0 0 0.164706 0 0 0 0 0.717647 0 0 0 0 0.305882 0 0 0 0.4 0"/>
<feBlend mode="normal" in2="BackgroundImageFix" result="effect1_dropShadow_79_7748"/>
<feBlend mode="normal" in="SourceGraphic" in2="effect1_dropShadow_79_7748" result="shape"/>
</filter>
</defs>
</svg>

<svg width="122" height="122" fill="none" xmlns="http://www.w3.org/2000/svg"><circle cx="62" cy="61" r="49" fill="#F4FFF4" stroke="#29B74D" stroke-width="2"/><g filter="url(#a)"><path d="M45.638 54.496a16.534 16.534 0 0 1 3.562-5.294 16.5 16.5 0 0 1 5.296-3.562 16.917 16.917 0 0 1 12.771-.086 5.188 5.188 0 0 0 5.192 5.03 5.194 5.194 0 0 0 5.208-5.209 5.194 5.194 0 0 0-5.208-5.208 5.185 5.185 0 0 0-3.673 1.51c-5.065-2.027-10.882-1.996-15.907.123A20.791 20.791 0 0 0 40.168 61h4.167c0-2.263.44-4.45 1.304-6.504ZM76.36 67.504a16.534 16.534 0 0 1-3.563 5.294 16.521 16.521 0 0 1-5.296 3.562 16.917 16.917 0 0 1-12.77.086 5.183 5.183 0 0 0-5.19-5.03 5.194 5.194 0 0 0-5.208 5.209 5.194 5.194 0 0 0 5.208 5.208 5.185 5.185 0 0 0 3.673-1.51A20.777 20.777 0 0 0 61 81.833a20.798 20.798 0 0 0 19.203-12.712A20.819 20.819 0 0 0 81.832 61h-4.166a16.652 16.652 0 0 1-1.306 6.504Z" fill="#2AB74E"/></g><g filter="url(#b)"><path d="M61 51.545c-5.213 0-9.455 4.242-9.455 9.454 0 5.213 4.242 9.455 9.454 9.455 5.213 0 9.454-4.242 9.454-9.455 0-5.212-4.241-9.454-9.454-9.454Z" fill="#2AB74E"/></g><rect x="10" y="82" width="36" height="36" rx="18" fill="#F4FFF4" stroke="#29B74D" stroke-width="2"/><path d="M32.922 105.125V107H23.39v-1.611l4.629-5.049c.507-.573.908-1.068 1.2-1.484.294-.417.499-.791.616-1.124.124-.338.186-.667.186-.986 0-.45-.085-.843-.254-1.181a1.858 1.858 0 0 0-.723-.811c-.32-.202-.707-.303-1.162-.303-.527 0-.97.114-1.328.342a2.136 2.136 0 0 0-.81.947c-.183.397-.274.853-.274 1.367h-2.354c0-.826.189-1.582.567-2.265a4.143 4.143 0 0 1 1.64-1.64c.716-.411 1.579-.616 2.588-.616.95 0 1.758.16 2.422.478.664.32 1.169.772 1.514 1.358.351.586.527 1.28.527 2.08 0 .443-.072.882-.215 1.318a6.248 6.248 0 0 1-.615 1.309c-.26.43-.57.862-.928 1.299a23.53 23.53 0 0 1-1.181 1.308l-3.077 3.389h6.563Z" fill="#29B74D"/><defs><filter id="a" x=".167" y=".167" width="121.667" height="121.667" filterUnits="userSpaceOnUse" color-interpolation-filters="sRGB"><feFlood flood-opacity="0" result="BackgroundImageFix"/><feColorMatrix in="SourceAlpha" values="0 0 0 0 0 0 0 0 0 0 0 0 0 0 0 0 0 0 127 0" result="hardAlpha"/><feOffset/><feGaussianBlur stdDeviation="20"/><feComposite in2="hardAlpha" operator="out"/><feColorMatrix values="0 0 0 0 0.164706 0 0 0 0 0.717647 0 0 0 0 0.305882 0 0 0 0.4 0"/><feBlend in2="BackgroundImageFix" result="effect1_dropShadow_79_7748"/><feBlend in="SourceGraphic" in2="effect1_dropShadow_79_7748" result="shape"/></filter><filter id="b" x="11.545" y="11.545" width="98.908" height="98.908" filterUnits="userSpaceOnUse" color-interpolation-filters="sRGB"><feFlood flood-opacity="0" result="BackgroundImageFix"/><feColorMatrix in="SourceAlpha" values="0 0 0 0 0 0 0 0 0 0 0 0 0 0 0 0 0 0 127 0" result="hardAlpha"/><feOffset/><feGaussianBlur stdDeviation="20"/><feComposite in2="hardAlpha" operator="out"/><feColorMatrix values="0 0 0 0 0.164706 0 0 0 0 0.717647 0 0 0 0 0.305882 0 0 0 0.4 0"/><feBlend in2="BackgroundImageFix" result="effect1_dropShadow_79_7748"/><feBlend in="SourceGraphic" in2="effect1_dropShadow_79_7748" result="shape"/></filter></defs></svg>
